X:1
T:Title
%%score ( 1 2 ) ( 3 4 )
L:1/8
Q:1/4=90
M:4/4
K:Eb
V:1 treble nm="Strings 1, Soprano"
V:2 treble 
V:3 bass nm="Strings 1, Bass"
V:4 bass 
V:1
 z4 z2 E>[EF] | [EG]2 [EG][EG] [GB]2 [GB]>[EG] | [DF]<E- E4 [EG][GB] | %3
w: 1.~I~ be|lieve~ in~ the~ old time~ re|li gion,~ * For~ it~|
 [Ge]2 [Ae][Ac] [GB]2 [GB]>[EG] | [DF]6 E>[EF] | [EG]2 [EG][EG] [GB]2 [GB]>[EG] | %6
w: saves~ from~ all~ sin~ here~ be|low,~ Gives~ me~|peace~ pass ing~ all~ un der|
 [DF]<E- E4 [Ee][Ec] | [EB]2 [EB]E [EG]2 [DG]>[DF] | E6 [GB]2 | [Ge]2 [Ge]>[Ge] [Ae]2 [Ad]>[Ac] | %10
w: stand ing,~ * While~ the~|riv ers~ of~ pleas ure~ doth~|flow.~ *||
 c<B- B4 z2 | [Ge]2 [Ge]>[Ge] [Fe]2 [Fd]>[Ec] | B6 z2 | [EG]2 [EG]>[EG] [GB]2 [GB]>[EG] | %14
w: ||||
 F<[K:bass]E- E4[K:treble] z2[Q:1/4=90][Q:1/4=12] | [EB]2 [EB]E [EG]2 [DG]>[B,F] | [B,E]6 z2 |] %17
w: |||
V:2
 x8 | x8 | x8 | x8 | x8 | x8 | x8 | x8 | x8 | x8 | AG G>G A<G [GB]2 | x8 | D2 D>E F2 E>[EF] | x8 | %14
 D[K:bass]B, B,>B, C<B,[K:treble] [Ee][Ec] | x8 | x8 |] %17
V:3
 z4 z2 [E,G,]>[E,A,] | [E,B,]2 [E,B,][E,B,] [E,E]2 [E,E]>[E,B,] | %2
 [B,,A,]<[E,G,]- [E,G,]4 [E,B,][E,E] | [E,B,]2 [A,C][A,E] [E,E]2 [E,E]>[E,B,] | %4
 [B,,B,]6 [E,G,]>[E,A,] | [E,B,]2 [E,B,][E,B,] [E,E]2 [E,E]>[E,B,] | %6
 [B,,A,]<[C,G,]- [C,G,]4 [A,,C][A,,A,] | [B,,G,]2 [B,,G,][C,=A,] [B,,B,]2 [B,,B,]>[B,,_A,] | %8
 [E,G,]6 [E,E]2 | [E,B,]2 [E,B,]>[E,B,] [A,C]2 [A,C]>[A,E] | %10
 [E,E]2 [E,E]>[E,E] [E,C]<[E,B,] [E,E]2 | [E,B,]2 [E,B,]>[E,B,] [F,=A,]2 [F,A,]>[F,A,] | %12
 [B,,B,]2 [B,,F,]>[B,,G,] [B,,A,]2 [E,G,]>[E,A,] | [E,B,]2 [E,B,]>[E,B,] [E,E]2 [E,E]>[E,B,] | %14
 A,G, [E,G,]>[E,G,] [E,A,][E,G,][A,,C][A,,A,] | [B,,G,]2 [B,,G,][C,=A,] [B,,B,]2 [B,,B,]>[B,,_A,] | %16
 [E,G,]6 z2 |] %17
V:4
 x8 | x8 | x8 | x8 | x8 | x8 | x8 | x8 | x8 | x8 | x8 | x8 | x8 | x8 | E,2 z2 z4 | x8 | x8 |] %17

